public/icons/svg/arrow-circle-left.svg

<svg fill="none" height="21" viewBox="0 0 20 21" width="20" xmlns="http://www.w3.org/2000/svg"><path d="m10.16.75c-1.92833 0-3.81339.57183-5.41677 1.64317s-2.85306 2.59409-3.59102 4.37567c-.737951 1.78158-.931034 3.74196-.554828 5.63326s1.304808 3.6286 2.668368 4.9922 3.10084 2.2922 4.99216 2.6684c1.89129.3762 3.85169.1831 5.63329-.5549 1.7816-.7379 3.3043-1.9876 4.3757-3.591 1.0713-1.6034 1.6431-3.4884 1.6431-5.4168-.0027-2.58502-1.0308-5.06339-2.8587-6.89128-1.8279-1.82788-4.3062-2.85599-6.8913-2.85872zm0 18c-1.63166 0-3.22671-.4839-4.58342-1.3904-1.3567-.9065-2.41412-2.195-3.03855-3.7025-.62442-1.5075-.7878-3.1663-.46947-4.7666.31833-1.60034 1.10406-3.07035 2.25785-4.22413 1.15378-1.15378 2.62379-1.93952 4.22413-2.25785 1.60036-.31833 3.25916-.15495 4.76666.46947 1.5075.62443 2.7959 1.68185 3.7025 3.03856.9065 1.3567 1.3903 2.95175 1.3903 4.58345-.0024 2.1873-.8724 4.2843-2.4191 5.8309-1.5466 1.5466-3.6436 2.4166-5.8309 2.4191zm4.5-8.25c0 .1989-.079.3897-.2196.5303-.1407.1407-.3314.2197-.5304.2197h-5.68965l1.72031 1.7194c.06964.0697.12494.1524.16264.2434.0377.0911.0572.1887.0572.2872s-.0195.1961-.0572.2872c-.0377.091-.093.1737-.16264.2434-.06968.0697-.1524.125-.24345.1627-.09104.0377-.18863.0571-.28717.0571-.09855 0-.19613-.0194-.28717-.0571-.09105-.0377-.17377-.093-.24346-.1627l-3-3c-.06973-.0696-.12505-.1523-.16279-.2434-.03774-.091-.05717-.1886-.05717-.2872s.01943-.1962.05717-.2872c.03774-.0911.09306-.1738.16279-.24343l3-3c.14073-.14073.33161-.21979.53063-.21979s.38989.07906.53062.21979c.14074.14074.21984.33161.21984.53063s-.0791.38989-.21984.53063l-1.72031 1.71937h5.68965c.199 0 .3897.07902.5304.21967.1406.14063.2196.33143.2196.53033z" fill="#f26a4b"/></svg>

<svg width="20" height="21" viewBox="0 0 20 21" fill="none" xmlns="http://www.w3.org/2000/svg">
<path d="M10.16 0.75C8.23167 0.75 6.34661 1.32183 4.74323 2.39317C3.13985 3.46451 1.89017 4.98726 1.15221 6.76884C0.414259 8.55042 0.221176 10.5108 0.597382 12.4021C0.973588 14.2934 1.90219 16.0307 3.26575 17.3943C4.62931 18.7579 6.36659 19.6865 8.25791 20.0627C10.1492 20.4389 12.1096 20.2458 13.8912 19.5078C15.6728 18.7699 17.1955 17.5202 18.2669 15.9168C19.3382 14.3134 19.91 12.4284 19.91 10.5C19.9073 7.91498 18.8792 5.43661 17.0513 3.60872C15.2234 1.78084 12.7451 0.75273 10.16 0.75ZM10.16 18.75C8.52834 18.75 6.93329 18.2661 5.57658 17.3596C4.21988 16.4531 3.16246 15.1646 2.53803 13.6571C1.91361 12.1496 1.75023 10.4908 2.06856 8.8905C2.38689 7.29016 3.17262 5.82015 4.32641 4.66637C5.48019 3.51259 6.9502 2.72685 8.55054 2.40852C10.1509 2.09019 11.8097 2.25357 13.3172 2.87799C14.8247 3.50242 16.1131 4.55984 17.0197 5.91655C17.9262 7.27325 18.41 8.8683 18.41 10.5C18.4076 12.6873 17.5376 14.7843 15.9909 16.3309C14.4443 17.8775 12.3473 18.7475 10.16 18.75ZM14.66 10.5C14.66 10.6989 14.581 10.8897 14.4404 11.0303C14.2997 11.171 14.109 11.25 13.91 11.25H8.22035L9.94066 12.9694C10.0103 13.0391 10.0656 13.1218 10.1033 13.2128C10.141 13.3039 10.1605 13.4015 10.1605 13.5C10.1605 13.5985 10.141 13.6961 10.1033 13.7872C10.0656 13.8782 10.0103 13.9609 9.94066 14.0306C9.87098 14.1003 9.78826 14.1556 9.69721 14.1933C9.60617 14.231 9.50858 14.2504 9.41004 14.2504C9.31149 14.2504 9.21391 14.231 9.12287 14.1933C9.03182 14.1556 8.9491 14.1003 8.87941 14.0306L5.87941 11.0306C5.80968 10.961 5.75436 10.8783 5.71662 10.7872C5.67888 10.6962 5.65945 10.5986 5.65945 10.5C5.65945 10.4014 5.67888 10.3038 5.71662 10.2128C5.75436 10.1217 5.80968 10.039 5.87941 9.96937L8.87941 6.96937C9.02014 6.82864 9.21102 6.74958 9.41004 6.74958C9.60906 6.74958 9.79993 6.82864 9.94066 6.96937C10.0814 7.11011 10.1605 7.30098 10.1605 7.5C10.1605 7.69902 10.0814 7.88989 9.94066 8.03063L8.22035 9.75H13.91C14.109 9.75 14.2997 9.82902 14.4404 9.96967C14.581 10.1103 14.66 10.3011 14.66 10.5Z" fill="#F26A4B"/>
</svg>
